src/img/icons/arrow-slider.svg

<?xml version="1.0" encoding="iso-8859-1"?>
<!-- Generator: Adobe Illustrator 19.0.0, SVG Export Plug-In . SVG Version: 6.00 Build 0)  -->
<svg xmlns="http://www.w3.org/2000/svg" xmlns:xlink="http://www.w3.org/1999/xlink" version="1.1" id="Layer_1" x="0px" y="0px" viewBox="0 0 512 512" style="enable-background:new 0 0 512 512;" xml:space="preserve">
<g>
	<g>
		<path d="M256,0C114.859,0,0,114.837,0,256c0,141.141,114.859,256,256,256c141.163,0,256-114.859,256-256    C512,114.837,397.163,0,256,0z M403.691,264.149c-1.088,2.603-2.645,4.971-4.608,6.933l-85.333,85.333    c-4.16,4.16-9.621,6.251-15.083,6.251c-5.461,0-10.901-2.091-15.083-6.251c-8.32-8.341-8.32-21.845,0-30.165l48.917-48.917H128    c-11.776,0-21.333-9.557-21.333-21.333c0-11.797,9.557-21.333,21.333-21.333h204.501l-48.917-48.917    c-8.32-8.341-8.32-21.845,0-30.165c8.341-8.341,21.845-8.341,30.165,0l85.333,85.312c1.963,1.963,3.52,4.331,4.608,6.955    C405.845,253.056,405.845,258.923,403.691,264.149z"/>
	</g>
</g>
</svg>

<svg width="512" height="512" viewBox="0 0 512 512" fill="none" xmlns="http://www.w3.org/2000/svg">
<path d="M256 0C114.859 0 0 114.837 0 256C0 397.141 114.859 512 256 512C397.163 512 512 397.141 512 256C512 114.837 397.163 0 256 0ZM403.691 264.149C402.603 266.752 401.046 269.12 399.083 271.082L313.75 356.415C309.59 360.575 304.129 362.666 298.667 362.666C293.206 362.666 287.766 360.575 283.584 356.415C275.264 348.074 275.264 334.57 283.584 326.25L332.501 277.333H128C116.224 277.333 106.667 267.776 106.667 256C106.667 244.203 116.224 234.667 128 234.667H332.501L283.584 185.75C275.264 177.409 275.264 163.905 283.584 155.585C291.925 147.244 305.429 147.244 313.749 155.585L399.082 240.897C401.045 242.86 402.602 245.228 403.69 247.852C405.845 253.056 405.845 258.923 403.691 264.149Z" fill="#6A7E98"/>
</svg>
